X:5989
T:Gan Ainm
R:Reel
S:
H:
N:Big leap is intended in second half
D:Conor Tully(Session Tape) 
Z:Adrian Scahill
M:4/4
L:1/8
K:F
DGG+cA+ BAGB|AGFA cAFG|DGGA B3c|1 dfcA AGGF|2 dfcA AGG2||\
dggf d2fd|cAGA GFDC|Dggf defg|agfa g3f|\
dggf dgfd|cAfc AFFC|DGGA BABc|dfcA AGG2||


